X: 1
T: Flowers Of Spring, The
M: 4/4
L: 1/8
R: hornpipe
K: Dmaj
|:dB | (3ABA FA DFA,E | (3DED FA dfab | afdf gfec | dcBA GFEd |
 AdFA DFA,E | (3DED FA dfab | afdA CEAG | F2D2D2 :|
|: F>G | Ad (3dcd fd (3dcd | baga fd (3dcd | (3Acd F>A dAFA | GFED CEA,2 | 
a>d~d2 fd~d2 | baga fd (3dcd | (3Acd FD CEAG | F2D2D2 :|
